dist/svg/winevent.svg

<!-- Generated by Trend Micro Style Portal -->
<svg version="1.1" xmlns="http://www.w3.org/2000/svg" width="16" height="16" viewBox="0 0 16 16">
  <title>winevent</title>
  <path fill="rgb(34,34,34)" d="M14.5 1h-1.5v-0.5c-0.001-0.276-0.224-0.499-0.5-0.5h-11c-0.276 0.001-0.499 0.224-0.5 0.5v15c0.001 0.276 0.224 0.499 0.5 0.5h13c0.276-0.001 0.499-0.224 0.5-0.5v-14c-0.001-0.276-0.224-0.499-0.5-0.5h-0zM3 4h8v1h-8zM3 7h8v1h-8zM3 10h8v1h-8zM14 15h-12l1-1h10v-11l1-1z"></path>
</svg>

<svg width="16" height="16" viewBox="0 0 16 16" fill="rgb(34, 34, 34)" xmlns="http://www.w3.org/2000/svg"><title>winevent</title><path d="M14.5 1H13V0.5C12.999 0.224 12.776 0.001 12.5 0H1.5C1.224 0.001 1.001 0.224 1 0.5V15.5C1.001 15.776 1.224 15.999 1.5 16H14.5C14.776 15.999 14.999 15.776 15 15.5V1.5C14.999 1.224 14.776 1.001 14.5 1ZM3 4H11V5H3V4ZM3 7H11V8H3V7ZM3 10H11V11H3V10ZM14 15H2L3 14H13V3L14 2V15Z" fill="rgb(34, 34, 34)" fill-opacity="1.00"/></svg>
